!!!OTL: Dreikönigslied (Band 1), S. 17
!!!id: P0778
**kern
*clefG2
*k[f#]
*G:
{4d
=1
8g
8f#
4e
4f#
4g
=2
4.a
8b
4a}
=3
{8f#
8d
=4
4g
4g
4cc
8.b
16cc
=5
2a}
4r
=6
{4d
=7
8g
8f#
4e
4f#
8.g
16b
=8
4.a
8b
4a}
=9
{8f#
8d
=10
4g
4g
4cc
8.b
16cc
=11
2a}
4r
=12
{8f#
8g
=13
4.a
8b
8a
8g
8f#
8e
=14
4.d
8c#
4d}
=15
{4d
=16
4.g
8a
4g
4f#
=17
2e
4d}
=18
{4d
=19
8g
8f#
4e
4f#
4g
=20
4.a
8b
4g}
=21
{4cc
=22
4b
4b
8a
8g
4a
=23
2g}
4r
==
*-
!!!minrhy: 16
!!!meters: 4/4 ]  ZZ[8
!!!cut: Dreikönigslied (Band 1), S. 17
!!!reg: Lothringen
!!!trd: PINCK, Louis: Verklingende Weisen, Bd 1, Metz 1928
!!!rhy1: X__  X_X_X__X__X__  X__.X_X__
!!!rhy2: X_X_  X__X__X__X_.X  X___0__
!!!key: P0778  16  G 4/4 ]  ZZ[8
!!!mod: ACHTTONSKALA DUR ?]  AMBITUS[7
!!!kad: 2222-5-511
!!!akz: 1-722_142_1-722_142_22-5-5_11-6-5_1-721_321_
!!!fot: 'a__b__av_b__c__d__aw_e__
!!!for: 'a__b__c__b__d__e__a__f__
!!!fok: '~a_^a_~a_^a_^d_^__Ma_\__
!! PHRAS[AUFTAKTIG]
!!!fkt: geistliche, religiöse Lieder
!! LOTH VKL
!! PR[34] 2K[3] 2G[13] 3K[3] 3G[6] 4A[13] 4Ü[0] 5A[0] 6K[0] 6G[0]
!! 7K[0] 7G[0] 8A[0] MEHR[0] SI[38] ABS[32] SR[16] SP[22]
!! ST[12] 2k[3] 2g[13] 3k[0] 3g[0] 4d[6] 4ü[0] 5d[3] 6k[0] 6g[3]
!! 7k[0] 7g[0] 8d[0] mehr[0] si[28] dm[+10] sr[16] sp[13]
!! 1F[6] 2F[82] 3F[12] 4F[0] LF[0] 2P[0] 3P[0] 4P[0] TRI[0] DF[3] AB[33]
!! TF[0] U3K[0] U3[0] U4[0] U4Ü[0] U5[18] U6K[0] U6[9] U7K[0] U7[9]
!! N1[33] N2K[0] N2[12] N3K[0] N3[15] N4[0] N4Ü[0] N5[3] N6K[0] N6[0]
!!!n7k: 0] N7[0] O1[0] O2K[0] O2[0] O3K[0] O3[0] HÖ[0
